assets/images/services1-icon5.svg

<svg width="82" height="69" viewBox="0 0 82 69" fill="none" xmlns="http://www.w3.org/2000/svg">
<path d="M81.7383 18.1819L74.3072 1.7166C74.1273 1.31856 73.7309 1.06274 73.2929 1.06274H62.519C62.081 1.06274 61.6846 1.31856 61.5047 1.7166L54.0736 18.1819C53.9189 18.5262 53.9484 18.9242 54.1535 19.2407C54.3587 19.5573 54.7107 19.748 55.0879 19.748H66.7934V66.3099H55.9718V61.3661H57.0678C58.7374 61.3661 60.0959 60.0107 60.0959 58.3448V42.3027C60.0959 40.975 59.0129 39.8945 57.6823 39.8945H55.9718V33.0724C55.9718 31.3406 54.5603 29.9323 52.8246 29.9323H10.8317C9.09643 29.9323 7.68451 31.3406 7.68451 33.0724V39.8945H5.97404C4.64295 39.8945 3.56 40.975 3.56 42.3027V58.3448C3.56 60.0107 4.91847 61.3661 6.58852 61.3661H7.68451V66.3099H1.1125C0.498018 66.3099 0 66.8068 0 67.4199C0 68.033 0.498018 68.5299 1.1125 68.5299H8.79701H12.1958H51.4601H54.8593H78.4556C79.0701 68.5299 79.5681 68.033 79.5681 67.4199C79.5681 66.8068 79.0701 66.3099 78.4556 66.3099H69.0184V19.748H80.724C81.1012 19.748 81.4532 19.5573 81.6584 19.2407C81.8635 18.9242 81.893 18.5262 81.7383 18.1819ZM57.8709 42.3027V51.1359H51.8468V42.3027C51.8468 42.1986 51.932 42.1145 52.0363 42.1145H57.6823C57.7865 42.1145 57.8709 42.1986 57.8709 42.3027ZM53.7468 33.0724V39.8945H52.0363C50.7048 39.8945 49.6218 40.975 49.6218 42.3027V51.1359H32.9404V32.1523H52.8246C53.3331 32.1523 53.7468 32.5651 53.7468 33.0724ZM9.90951 33.0724C9.90951 32.5651 10.3232 32.1523 10.8317 32.1523H30.7154V51.1359H14.034V42.3027C14.034 40.975 12.9511 39.8945 11.62 39.8945H9.90951V33.0724ZM5.97404 42.1145H11.62C11.7243 42.1145 11.809 42.1986 11.809 42.3027V51.1359H5.785V42.3027C5.785 42.1986 5.86974 42.1145 5.97404 42.1145ZM5.785 58.3448V53.3559H57.8709V58.3448C57.8709 58.7862 57.5102 59.1461 57.0678 59.1461H50.7343H12.9215H6.58852C6.14526 59.1461 5.785 58.7862 5.785 58.3448ZM48.1867 61.3661L49.8986 66.3099H13.7574L15.4695 61.3661H48.1867ZM9.90951 66.3099V61.3661H12.9215H13.1152L11.4031 66.3099H9.90951ZM52.2527 66.3099L50.541 61.3661H50.7343H53.7468V66.3099H52.2527ZM56.8088 17.528L63.2378 3.28274H72.5741L79.0031 17.528H56.8088Z" fill="#9C8679"/>
<path d="M2.58356 23.3541C2.60806 23.4123 2.65315 23.4566 2.68682 23.5093C2.72892 23.5743 2.75826 23.6453 2.81535 23.7023C2.81638 23.7033 2.81779 23.7036 2.81882 23.7046C3.02052 23.9083 3.29962 24.0353 3.60931 24.0353H43.3834C43.6928 24.0353 43.9718 23.9085 44.1735 23.7051C44.1747 23.7039 44.1765 23.7035 44.1777 23.7023C44.2477 23.6325 44.2878 23.5474 44.3352 23.4659C44.3574 23.4271 44.3914 23.3966 44.4089 23.355C44.4748 23.2025 44.5018 23.0406 44.4959 22.8774V1.42793C44.5018 1.26468 44.4748 1.10284 44.4089 0.950274C44.3914 0.908703 44.3574 0.878243 44.3352 0.839437C44.2878 0.757921 44.2477 0.672828 44.1777 0.60302C44.1765 0.601773 44.1747 0.601448 44.1735 0.600201C43.9718 0.396792 43.6928 0.27002 43.3834 0.27002H3.60931C3.29962 0.27002 3.02052 0.397008 2.81882 0.600689C2.81779 0.601719 2.81638 0.60199 2.81535 0.60302C2.75826 0.659983 2.72892 0.730984 2.68682 0.796023C2.65315 0.848759 2.60806 0.892985 2.58356 0.95125C2.51832 1.10284 2.49121 1.2636 2.49681 1.42571V22.8796C2.49121 23.0417 2.51832 23.2025 2.58356 23.3541ZM36.7866 16.3286H10.2061V7.97672H36.7866V16.3286ZM9.55423 18.5486H37.4385L40.713 21.8153H6.27991L9.55423 18.5486ZM39.0116 16.9789V7.32638L42.2709 4.07491V20.2304L39.0116 16.9789ZM37.4385 5.75672H9.55423L6.27991 2.49002H40.713L37.4385 5.75672ZM7.98109 7.32632V16.979L4.72181 20.2307V4.07464L7.98109 7.32632Z" fill="#9C8679"/>
</svg>

<svg width="82" height="69" fill="none" xmlns="http://www.w3.org/2000/svg"><path d="M81.738 18.182l-7.43-16.465a1.112 1.112 0 00-1.015-.654H62.519c-.438 0-.834.256-1.014.654l-7.431 16.465a1.11 1.11 0 001.014 1.566h11.705V66.31H55.972v-4.944h1.096a3.028 3.028 0 003.028-3.021V42.303a2.414 2.414 0 00-2.414-2.408h-1.71v-6.823a3.147 3.147 0 00-3.147-3.14H10.832a3.147 3.147 0 00-3.147 3.14v6.822H5.974a2.414 2.414 0 00-2.414 2.409v16.042a3.028 3.028 0 003.029 3.021h1.096v4.944H1.113a1.111 1.111 0 100 2.22h77.343a1.111 1.111 0 100-2.22h-9.438V19.748h11.706a1.11 1.11 0 001.014-1.566zm-23.867 24.12v8.834h-6.024v-8.833c0-.104.085-.188.19-.188h5.645c.104 0 .189.084.189.188zm-4.124-9.23v6.822h-1.71a2.414 2.414 0 00-2.415 2.409v8.833H32.94V32.152h19.885c.508 0 .922.413.922.92zm-43.837 0c0-.507.413-.92.922-.92h19.883v18.984H14.034v-8.833a2.414 2.414 0 00-2.414-2.408H9.91v-6.823zm-3.936 9.042h5.646a.19.19 0 01.189.189v8.833H5.785v-8.833c0-.104.085-.188.189-.188zm-.189 16.23v-4.988h52.086v4.989c0 .441-.36.801-.803.801H6.589a.803.803 0 01-.804-.801zm42.402 3.022l1.712 4.944H13.757l1.713-4.944h32.717zM9.91 66.31v-4.944h3.205l-1.712 4.944H9.91zm42.343 0l-1.712-4.944h3.206v4.944h-1.494zm4.556-48.782l6.429-14.245h9.336l6.43 14.245H56.808z" fill="#9C8679"/><path d="M2.584 23.354c.024.058.07.103.103.155.042.065.071.136.128.193l.004.003c.202.203.48.33.79.33h39.774c.31 0 .589-.127.79-.33l.005-.003c.07-.07.11-.155.157-.236.022-.039.056-.07.074-.111.066-.152.093-.314.087-.478V1.427a1.097 1.097 0 00-.087-.477c-.018-.041-.052-.072-.074-.11-.047-.082-.087-.167-.157-.237L44.173.6a1.109 1.109 0 00-.79-.33H3.61c-.31 0-.588.127-.79.33l-.004.003c-.057.057-.086.128-.128.193-.034.053-.079.097-.103.155a1.097 1.097 0 00-.087.475V22.88c-.006.162.021.323.087.474zm34.203-7.025h-26.58V7.977h26.58v8.352zm-27.233 2.22h27.884l3.275 3.266H6.28l3.274-3.266zm29.458-1.57V7.326l3.259-3.251V20.23l-3.26-3.251zM37.438 5.757H9.554L6.28 2.49h34.433l-3.275 3.267zM7.981 7.327v9.652l-3.26 3.252V4.075l3.26 3.251z" fill="#9C8679"/></svg>
